swiss/communes/0053.svg

<?xml version="1.0" encoding="UTF-8" standalone="no"?>
<!-- Created with Inkscape (http://www.inkscape.org/) -->
<svg
   xmlns:svg="http://www.w3.org/2000/svg"
   xmlns="http://www.w3.org/2000/svg"
   version="1.0"
   width="221.23906"
   height="259.14713"
   id="svg2780">
  <defs
     id="defs2782" />
  <g
     transform="translate(-32.905465,-792.85594)"
     id="layer1">
    <path
       d="M 33.905465,793.85594 L 37.891625,961.30061 C 40.738875,1080.9039 246.3111,1080.9039 249.15836,961.30061 L 253.14452,793.85594 L 33.905465,793.85594 z "
       style="fill:#cb2918;fill-opacity:1;fill-rule:evenodd;stroke:#000000;stroke-width:2;stroke-linecap:butt;stroke-miterlimit:4;stroke-dashoffset:0;stroke-opacity:1"
       id="path3282" />
    <g
       transform="translate(1.4937425,0)"
       id="g77765">
      <path
         d="M 137.90625,843.54939 L 137.90625,852.25 L 82.71875,852.25 C 79.5436,852.25 77,854.82484 77,858 L 77,884.5625 L 74.375,884.5625 C 72.02815,884.5625 70.125,886.13738 70.125,888.09375 L 70.125,888.625 C 70.125,890.5814 72.028151,892.15627 74.375,892.15625 L 77,892.15625 L 77,912.25 L 74.375,912.25 C 72.02815,912.25 70.125,913.82488 70.125,915.78125 L 70.125,916.3125 C 70.125,918.2689 72.028151,919.84377 74.375,919.84375 L 77,919.84375 L 77,939.9375 L 74.375,939.9375 C 72.02815,939.9375 70.125,941.51238 70.125,943.46875 L 70.125,944 C 70.125,945.9564 72.028151,947.53127 74.375,947.53125 L 77,947.53125 L 77,967.625 L 74.375,967.625 C 72.02815,967.625 70.125,969.19988 70.125,971.15625 L 70.125,971.6875 C 70.125,973.6439 72.028151,975.21877 74.375,975.21875 L 77,975.21875 L 77,1001.7812 C 77,1004.9567 79.543602,1007.5 82.71875,1007.5 L 137.90625,1007.5 L 137.90625,1010.875 C 137.90625,1013.169 139.73726,1015 142.03125,1015 C 144.32523,1015 146.1875,1013.169 146.1875,1010.875 L 146.1875,1007.5 L 201.34375,1007.5 C 204.5189,1007.5 207.0625,1004.9565 207.0625,1001.7812 L 207.0625,975.21875 L 209.71875,975.21875 C 212.0656,975.21875 213.93749,973.64389 213.9375,971.6875 L 213.9375,971.15625 C 213.9375,969.19985 212.06561,967.625 209.71875,967.625 L 207.0625,967.625 L 207.0625,947.53125 L 209.71875,947.53125 C 212.0656,947.53125 213.93749,945.95639 213.9375,944 L 213.9375,943.46875 C 213.9375,941.51235 212.06561,939.9375 209.71875,939.9375 L 207.0625,939.9375 L 207.0625,919.84375 L 209.71875,919.84375 C 212.0656,919.84375 213.93749,918.26889 213.9375,916.3125 L 213.9375,915.78125 C 213.9375,913.82485 212.06561,912.25 209.71875,912.25 L 207.0625,912.25 L 207.0625,892.15625 L 209.71875,892.15625 C 212.0656,892.15625 213.93749,890.58139 213.9375,888.625 L 213.9375,888.09375 C 213.9375,886.13735 212.06561,884.5625 209.71875,884.5625 L 207.0625,884.5625 L 207.0625,858 C 207.0625,854.82485 204.5189,852.25 201.34375,852.25 L 146.1875,852.25 L 146.1875,846.72103 C 146.1875,842.23716 152.19004,840.36156 155.05805,834.66421 C 157.89073,829.03703 158.05349,818.18929 152.32691,811.4936 C 146.64373,804.84865 133.38516,805.85513 129.33251,813.34373 C 125.24292,820.90056 127.66566,828.15275 130.30162,831.14017 C 132.94465,834.13561 134.26617,833.607 132.41605,828.40903 C 130.53807,823.13279 133.29706,815.10576 139.81654,815.19386 C 146.24793,815.28196 147.83775,820.74441 147.65755,824.70878 C 147.48134,828.58523 145.95496,832.53282 143.25249,835.10471 C 140.59442,837.63436 137.90625,839.72635 137.90625,843.54939 z M 88.875,864.46875 L 137.90625,864.46875 L 137.90625,884.5625 L 88.875,884.5625 L 88.875,864.46875 z M 146.1875,864.46875 L 195.1875,864.46875 L 195.1875,884.5625 L 146.1875,884.5625 L 146.1875,864.46875 z M 88.875,892.15625 L 137.90625,892.15625 L 137.90625,912.25 L 88.875,912.25 L 88.875,892.15625 z M 146.1875,892.15625 L 195.1875,892.15625 L 195.1875,912.25 L 146.1875,912.25 L 146.1875,892.15625 z M 88.875,919.84375 L 137.90625,919.84375 L 137.90625,939.9375 L 88.875,939.9375 L 88.875,919.84375 z M 146.1875,919.84375 L 195.1875,919.84375 L 195.1875,939.9375 L 146.1875,939.9375 L 146.1875,919.84375 z M 88.875,947.53125 L 137.90625,947.53125 L 137.90625,967.625 L 88.875,967.625 L 88.875,947.53125 z M 146.1875,947.53125 L 195.1875,947.53125 L 195.1875,967.625 L 146.1875,967.625 L 146.1875,947.53125 z M 88.875,975.21875 L 137.90625,975.21875 L 137.90625,995.3125 L 88.875,995.3125 L 88.875,975.21875 z M 146.1875,975.21875 L 195.1875,975.21875 L 195.1875,995.3125 L 146.1875,995.3125 L 146.1875,975.21875 z "
         style="color:#000000;fill:#ffffff;fill-opacity:1;fill-rule:evenodd;stroke:#000000;stroke-width:1.00000012px;stroke-linecap:butt;stroke-linejoin:miter;marker:none;marker-start:none;marker-mid:none;marker-end:none;stroke-miterlimit:4;stroke-dashoffset:0;stroke-opacity:1;visibility:visible;display:inline;overflow:visible;enable-background:accumulate"
         id="rect7526" />
      <path
         d="M 88.212454 860.61224 A 3.8624096 3.8624096 0 1 1  80.487635,860.61224 A 3.8624096 3.8624096 0 1 1  88.212454 860.61224 z"
         transform="matrix(0.9354839,0,0,0.9354839,5.1927507,54.028245)"
         style="fill:none;fill-opacity:0.75;fill-rule:evenodd;stroke:#000000;stroke-width:1.06896553pt;stroke-linecap:butt;stroke-linejoin:miter;stroke-opacity:1"
         id="path8502" />
      <path
         d="M 88.212454 860.61224 A 3.8624096 3.8624096 0 1 1  80.487635,860.61224 A 3.8624096 3.8624096 0 1 1  88.212454 860.61224 z"
         transform="matrix(0.9354839,0,0,0.9354839,121.56342,54.028245)"
         style="fill:none;fill-opacity:0.75;fill-rule:evenodd;stroke:#000000;stroke-width:1.06896553pt;stroke-linecap:butt;stroke-linejoin:miter;stroke-opacity:1"
         id="path9473" />
      <path
         d="M 88.212454 860.61224 A 3.8624096 3.8624096 0 1 1  80.487635,860.61224 A 3.8624096 3.8624096 0 1 1  88.212454 860.61224 z"
         transform="matrix(0.9354839,0,0,0.9354839,5.1927507,195.56687)"
         style="fill:none;fill-opacity:0.75;fill-rule:evenodd;stroke:#000000;stroke-width:1.06896553pt;stroke-linecap:butt;stroke-linejoin:miter;stroke-opacity:1"
         id="path9475" />
      <path
         d="M 88.212454 860.61224 A 3.8624096 3.8624096 0 1 1  80.487635,860.61224 A 3.8624096 3.8624096 0 1 1  88.212454 860.61224 z"
         transform="matrix(0.9354839,0,0,0.9354839,121.56342,195.56687)"
         style="fill:none;fill-opacity:0.75;fill-rule:evenodd;stroke:#000000;stroke-width:1.06896553pt;stroke-linecap:butt;stroke-linejoin:miter;stroke-opacity:1"
         id="path9477" />
    </g>
  </g>
</svg>

<svg xmlns="http://www.w3.org/2000/svg" version="1.0" width="221.239" height="259.147"><path d="M33.905 793.856 37.892 961.3c2.847 119.603 208.42 119.603 211.266 0l3.987-167.445H33.905z" style="fill:#cb2918;fill-opacity:1;fill-rule:evenodd;stroke:#000;stroke-width:2;stroke-linecap:butt;stroke-miterlimit:4;stroke-dashoffset:0;stroke-opacity:1" transform="translate(-32.905 -792.856)"/><path d="M137.906 843.55v8.7H82.72c-3.175 0-5.719 2.575-5.719 5.75v26.563h-2.625c-2.347 0-4.25 1.574-4.25 3.53v.532c0 1.956 1.903 3.531 4.25 3.531H77v20.094h-2.625c-2.347 0-4.25 1.575-4.25 3.531v.532c0 1.956 1.903 3.53 4.25 3.53H77v20.095h-2.625c-2.347 0-4.25 1.574-4.25 3.53V944c0 1.956 1.903 3.531 4.25 3.531H77v20.094h-2.625c-2.347 0-4.25 1.575-4.25 3.531v.532c0 1.956 1.903 3.53 4.25 3.53H77v26.563a5.697 5.697 0 0 0 5.719 5.719h55.187v3.375a4.105 4.105 0 0 0 4.125 4.125c2.294 0 4.156-1.831 4.156-4.125v-3.375h55.157a5.697 5.697 0 0 0 5.719-5.719V975.22h2.656c2.347 0 4.218-1.575 4.219-3.532v-.53c0-1.957-1.872-3.532-4.22-3.532h-2.655v-20.094h2.656c2.347 0 4.218-1.575 4.219-3.531v-.531c0-1.957-1.872-3.532-4.22-3.532h-2.655v-20.093h2.656c2.347 0 4.218-1.575 4.219-3.532v-.53c0-1.957-1.872-3.532-4.22-3.532h-2.655v-20.094h2.656c2.347 0 4.218-1.575 4.219-3.531v-.531c0-1.957-1.872-3.532-4.22-3.532h-2.655V858c0-3.175-2.544-5.75-5.72-5.75h-55.155v-5.529c0-4.484 6.002-6.36 8.87-12.057 2.833-5.627 2.995-16.475-2.731-23.17-5.683-6.645-18.942-5.639-22.994 1.85-4.09 7.557-1.667 14.809.969 17.796 2.643 2.996 3.964 2.467 2.114-2.731-1.878-5.276.881-13.303 7.4-13.215 6.432.088 8.022 5.55 7.842 9.515-.177 3.876-1.703 7.824-4.406 10.396-2.658 2.53-5.346 4.621-5.346 8.444zm-49.031 20.919h49.031v20.093H88.875V864.47zm57.313 0h49v20.093h-49V864.47zm-57.313 27.687h49.031v20.094H88.875v-20.094zm57.313 0h49v20.094h-49v-20.094zm-57.313 27.688h49.031v20.093H88.875v-20.093zm57.313 0h49v20.093h-49v-20.093zM88.874 947.53h49.031v20.094H88.875v-20.094zm57.313 0h49v20.094h-49v-20.094zM88.874 975.22h49.031v20.093H88.875V975.22zm57.313 0h49v20.093h-49V975.22z" style="color:#000;fill:#fff;fill-opacity:1;fill-rule:evenodd;stroke:#000;stroke-width:1.00000012px;stroke-linecap:butt;stroke-linejoin:miter;marker:none;marker-start:none;marker-mid:none;marker-end:none;stroke-miterlimit:4;stroke-dashoffset:0;stroke-opacity:1;visibility:visible;display:inline;overflow:visible;enable-background:accumulate" transform="translate(-31.412 -792.856)"/><path d="M88.212 860.612a3.862 3.862 0 1 1-7.724 0 3.862 3.862 0 1 1 7.724 0z" transform="matrix(.93548 0 0 .93548 -26.219 -738.828)" style="fill:none;fill-opacity:.75;fill-rule:evenodd;stroke:#000;stroke-width:1.06896553pt;stroke-linecap:butt;stroke-linejoin:miter;stroke-opacity:1"/><path d="M88.212 860.612a3.862 3.862 0 1 1-7.724 0 3.862 3.862 0 1 1 7.724 0z" transform="matrix(.93548 0 0 .93548 90.152 -738.828)" style="fill:none;fill-opacity:.75;fill-rule:evenodd;stroke:#000;stroke-width:1.06896553pt;stroke-linecap:butt;stroke-linejoin:miter;stroke-opacity:1"/><path d="M88.212 860.612a3.862 3.862 0 1 1-7.724 0 3.862 3.862 0 1 1 7.724 0z" transform="matrix(.93548 0 0 .93548 -26.219 -597.29)" style="fill:none;fill-opacity:.75;fill-rule:evenodd;stroke:#000;stroke-width:1.06896553pt;stroke-linecap:butt;stroke-linejoin:miter;stroke-opacity:1"/><path d="M88.212 860.612a3.862 3.862 0 1 1-7.724 0 3.862 3.862 0 1 1 7.724 0z" transform="matrix(.93548 0 0 .93548 90.152 -597.29)" style="fill:none;fill-opacity:.75;fill-rule:evenodd;stroke:#000;stroke-width:1.06896553pt;stroke-linecap:butt;stroke-linejoin:miter;stroke-opacity:1"/></svg>
